X:1
T:A minor James P. Carrell, 1821
T:Isaac Watts 1709 (Hymn 1, Book 3)                        88. 88. (L. M.)
T:Passover
T:Transcribed from Songs of Zion, 1821
%%score [ 1 2 3 4 ]
L:1/8
Q:1/4=100
M:4/4
K:C
V:1 treble nm="Tr." snm="Tr."
V:2 treble nm="C." snm="C."
V:3 treble-8 nm="T." snm="T."
V:4 bass nm="B." snm="B."
V:1
"^2. Be–fore the mournful scene began, He took the bread, and blessed, and brake:    What    love through all his ac – tions""^1. Twas on that dark, that doleful night  When powers of earth and hell a–rose        A   –    gainst  the Son  of  God's  de –" A4 | %1
 A2 B2 c4 | (d3 e) A2 G2 | A4 A4 | B2 c2 B4 | A4 cd e2 | e8 | z4 e4 | B2 A2 G4 | E4 E2 c2 | %10
"^1. –light,  And  friends betrayed  him     to   his   foes:""^2.  ran!    What  wondrous  words  of  grace  he  spake!" B4 (B3 d) | %11
 c2 c2 d4 | (e2 c2) B2 G2 | A8 |] %14
V:2
"^4.  For us his flesh with nails was torn,  He bore the scourge, he felt the thorn;         And     jus–tice  poured  up  –  on  his""^3. \"This is my bo  –  dy, broke for  sin;  Re–ceive and  eat  the  li – ving  food.\"        Then     took  the cup, and blessed the" E4 | %1
 E2 G2 E4 | A4 A2 B2 | A4 E4 | D2 EF G4 | A4 GF E2 | E8 | z4 E4 | G2 Ac B4 | A4 G2 F2 | %10
"^3. wine; \"Tis   the new   cove–nant      in   my  blood.\"""^4. head    Its   hea–vy     vengeance     in   our  stead." E4 G4 | %11
 E2 E2 D4 | E4 G2 G2 | A8 |] %14
V:3
"^6. \"Do this,\" he cried, \"till time shall end,  In   memory  of  your  dying  friend;         Meet   at   my    ta  – ble,    and  re –""^5.  For us his  vi – tal blood was spilt,   To  buy  the  par – don   of   our  guilt,         When, for black crimes of    big–gest" A4 | %1
 c2 B2 A4 | A4 c2 d2 | e4 e4 | f2 e2 d4 | e4 ed c2 | B8 | z4 (B3 c) | d2 c2 d4 | (e3 f) g2 f2 | %10
"^5. size,  He     gave  his   soul     a        sa – cri – fice.""^6.–cord  The    love   of   your    de  –  par – ted  Lord.\"" e4 B4 | %11
 c2 BA G4 | A4 B2 c2 | A8 |] %14
V:4
"^7. Je – sus, thy feast we   ce–le–brate,   We show thy death, we sing  thy name,        Till  thou  re – turn,   and  we shall" A,4 | %1
 A,2 E,2 A,4 | D,4 C,2 B,,2 | A,,4 C4 | B,2 E,F, G,4 | A,4 G,2 A,2 | E,8 | z4 E,4 | B,,2 A,,2 G,4 | %9
 A,4 B,2 A,2 |"^7. eat   The   mar–riage   sup  –  per      of   the  Lamb." E,4 E,4 | %11
 C,2 E,2 G,4 | A,4 E,2 E,2 | A,,8 |] %14

